images/2576.svg

<?xml version="1.0" encoding="UTF-8"?>
<svg xmlns="http://www.w3.org/2000/svg" xmlns:xlink="http://www.w3.org/1999/xlink" width="300pt" height="300pt" viewBox="0 0 300 300" version="1.1">
<defs>
<g>
<symbol overflow="visible" id="glyph0-0">
<path style="stroke:none;" d="M 0.59375 2.125 L 0.59375 -8.46875 L 6.59375 -8.46875 L 6.59375 2.125 Z M 1.265625 1.453125 L 5.9375 1.453125 L 5.9375 -7.78125 L 1.265625 -7.78125 Z M 1.265625 1.453125 "/>
</symbol>
<symbol overflow="visible" id="glyph0-1">
<path style="stroke:none;" d="M 4.734375 -7.953125 C 3.867188 -7.953125 3.179688 -7.628906 2.671875 -6.984375 C 2.171875 -6.347656 1.921875 -5.472656 1.921875 -4.359375 C 1.921875 -3.265625 2.171875 -2.394531 2.671875 -1.75 C 3.179688 -1.113281 3.867188 -0.796875 4.734375 -0.796875 C 5.585938 -0.796875 6.265625 -1.113281 6.765625 -1.75 C 7.273438 -2.394531 7.53125 -3.265625 7.53125 -4.359375 C 7.53125 -5.472656 7.273438 -6.347656 6.765625 -6.984375 C 6.265625 -7.628906 5.585938 -7.953125 4.734375 -7.953125 Z M 4.734375 -8.90625 C 5.953125 -8.90625 6.925781 -8.492188 7.65625 -7.671875 C 8.394531 -6.847656 8.765625 -5.742188 8.765625 -4.359375 C 8.765625 -2.984375 8.394531 -1.882812 7.65625 -1.0625 C 6.925781 -0.238281 5.953125 0.171875 4.734375 0.171875 C 3.503906 0.171875 2.519531 -0.238281 1.78125 -1.0625 C 1.039062 -1.882812 0.671875 -2.984375 0.671875 -4.359375 C 0.671875 -5.742188 1.039062 -6.847656 1.78125 -7.671875 C 2.519531 -8.492188 3.503906 -8.90625 4.734375 -8.90625 Z M 4.734375 -8.90625 "/>
</symbol>
<symbol overflow="visible" id="glyph0-2">
<path style="stroke:none;" d="M 1.171875 -8.75 L 2.765625 -8.75 L 6.65625 -1.4375 L 6.65625 -8.75 L 7.796875 -8.75 L 7.796875 0 L 6.203125 0 L 2.328125 -7.3125 L 2.328125 0 L 1.171875 0 Z M 1.171875 -8.75 "/>
</symbol>
<symbol overflow="visible" id="glyph0-3">
<path style="stroke:none;" d="M 1.171875 -8.75 L 2.359375 -8.75 L 2.359375 -5.15625 L 6.65625 -5.15625 L 6.65625 -8.75 L 7.84375 -8.75 L 7.84375 0 L 6.65625 0 L 6.65625 -4.171875 L 2.359375 -4.171875 L 2.359375 0 L 1.171875 0 Z M 1.171875 -8.75 "/>
</symbol>
<symbol overflow="visible" id="glyph1-0">
<path style="stroke:none;" d="M 0.5 1.765625 L 0.5 -7.046875 L 5.5 -7.046875 L 5.5 1.765625 Z M 1.0625 1.21875 L 4.9375 1.21875 L 4.9375 -6.484375 L 1.0625 -6.484375 Z M 1.0625 1.21875 "/>
</symbol>
<symbol overflow="visible" id="glyph1-1">
<path style="stroke:none;" d="M 1.921875 -0.828125 L 5.359375 -0.828125 L 5.359375 0 L 0.734375 0 L 0.734375 -0.828125 C 1.109375 -1.210938 1.617188 -1.734375 2.265625 -2.390625 C 2.910156 -3.046875 3.316406 -3.46875 3.484375 -3.65625 C 3.796875 -4.007812 4.015625 -4.304688 4.140625 -4.546875 C 4.265625 -4.796875 4.328125 -5.039062 4.328125 -5.28125 C 4.328125 -5.664062 4.191406 -5.976562 3.921875 -6.21875 C 3.648438 -6.46875 3.296875 -6.59375 2.859375 -6.59375 C 2.546875 -6.59375 2.21875 -6.535156 1.875 -6.421875 C 1.539062 -6.316406 1.175781 -6.15625 0.78125 -5.9375 L 0.78125 -6.9375 C 1.175781 -7.09375 1.546875 -7.210938 1.890625 -7.296875 C 2.234375 -7.378906 2.550781 -7.421875 2.84375 -7.421875 C 3.59375 -7.421875 4.191406 -7.234375 4.640625 -6.859375 C 5.097656 -6.484375 5.328125 -5.976562 5.328125 -5.34375 C 5.328125 -5.039062 5.269531 -4.753906 5.15625 -4.484375 C 5.039062 -4.222656 4.835938 -3.910156 4.546875 -3.546875 C 4.460938 -3.453125 4.203125 -3.175781 3.765625 -2.71875 C 3.328125 -2.269531 2.710938 -1.640625 1.921875 -0.828125 Z M 1.921875 -0.828125 "/>
</symbol>
</g>
</defs>
<g id="surface53845">
<rect x="0" y="0" width="300" height="300" style="fill:rgb(100%,100%,100%);fill-opacity:1;stroke:none;"/>
<path style="fill:none;stroke-width:1.2;stroke-linecap:butt;stroke-linejoin:miter;stroke:rgb(0%,0%,0%);stroke-opacity:1;stroke-miterlimit:10;" d="M 221.960938 82.929688 L 215.011719 111.121094 "/>
<path style="fill:none;stroke-width:1.2;stroke-linecap:butt;stroke-linejoin:miter;stroke:rgb(0%,0%,0%);stroke-opacity:1;stroke-miterlimit:10;" d="M 215.011719 111.121094 L 187.121094 119.199219 "/>
<path style="fill:none;stroke-width:1.2;stroke-linecap:butt;stroke-linejoin:miter;stroke:rgb(0%,0%,0%);stroke-opacity:1;stroke-miterlimit:10;" d="M 187.121094 119.199219 L 180.171875 147.390625 "/>
<path style="fill:none;stroke-width:1.2;stroke-linecap:butt;stroke-linejoin:miter;stroke:rgb(0%,0%,0%);stroke-opacity:1;stroke-miterlimit:10;" d="M 180.171875 147.390625 L 173.222656 175.585938 "/>
<path style="fill:none;stroke-width:1.2;stroke-linecap:butt;stroke-linejoin:miter;stroke:rgb(0%,0%,0%);stroke-opacity:1;stroke-miterlimit:10;" d="M 180.171875 147.390625 L 208.363281 154.339844 "/>
<path style="fill:none;stroke-width:1.2;stroke-linecap:butt;stroke-linejoin:miter;stroke:rgb(0%,0%,0%);stroke-opacity:1;stroke-miterlimit:10;" d="M 180.171875 147.390625 L 151.980469 140.441406 "/>
<path style="fill:none;stroke-width:1.2;stroke-linecap:butt;stroke-linejoin:miter;stroke:rgb(0%,0%,0%);stroke-opacity:1;stroke-miterlimit:10;" d="M 208.363281 154.339844 L 212.402344 168.285156 "/>
<path style="fill:none;stroke-width:1.2;stroke-linecap:butt;stroke-linejoin:miter;stroke:rgb(100%,0%,0%);stroke-opacity:1;stroke-miterlimit:10;" d="M 212.402344 168.285156 L 216.441406 182.230469 "/>
<path style="fill:none;stroke-width:1.2;stroke-linecap:butt;stroke-linejoin:miter;stroke:rgb(100%,0%,0%);stroke-opacity:1;stroke-miterlimit:10;" d="M 216.441406 182.230469 L 230.539062 185.707031 "/>
<path style="fill:none;stroke-width:1.2;stroke-linecap:butt;stroke-linejoin:miter;stroke:rgb(0%,0%,0%);stroke-opacity:1;stroke-miterlimit:10;" d="M 230.539062 185.707031 L 244.636719 189.179688 "/>
<path style=" stroke:none;fill-rule:nonzero;fill:rgb(100%,100%,100%);fill-opacity:1;" d="M 211.441406 175.230469 L 221.441406 175.230469 L 221.441406 189.230469 L 211.441406 189.230469 Z M 211.441406 175.230469 "/>
<g style="fill:rgb(100%,0%,0%);fill-opacity:1;">
  <use xlink:href="#glyph0-1" x="211.441406" y="186.369141"/>
</g>
<path style="fill:none;stroke-width:1.2;stroke-linecap:butt;stroke-linejoin:miter;stroke:rgb(0%,0%,0%);stroke-opacity:1;stroke-miterlimit:10;" d="M 247.097656 191.546875 L 257.15625 181.078125 "/>
<path style="fill:none;stroke-width:1.2;stroke-linecap:butt;stroke-linejoin:miter;stroke:rgb(100%,0%,0%);stroke-opacity:1;stroke-miterlimit:10;" d="M 257.15625 181.078125 L 267.214844 170.605469 "/>
<path style="fill:none;stroke-width:1.2;stroke-linecap:butt;stroke-linejoin:miter;stroke:rgb(0%,0%,0%);stroke-opacity:1;stroke-miterlimit:10;" d="M 242.171875 186.816406 L 252.230469 176.34375 "/>
<path style="fill:none;stroke-width:1.2;stroke-linecap:butt;stroke-linejoin:miter;stroke:rgb(100%,0%,0%);stroke-opacity:1;stroke-miterlimit:10;" d="M 252.230469 176.34375 L 262.285156 165.875 "/>
<path style="fill:none;stroke-width:1.2;stroke-linecap:butt;stroke-linejoin:miter;stroke:rgb(0%,0%,0%);stroke-opacity:1;stroke-miterlimit:10;" d="M 244.636719 189.179688 L 248.675781 203.125 "/>
<path style="fill:none;stroke-width:1.2;stroke-linecap:butt;stroke-linejoin:miter;stroke:rgb(0%,0%,100%);stroke-opacity:1;stroke-miterlimit:10;" d="M 248.675781 203.125 L 252.710938 217.070312 "/>
<path style=" stroke:none;fill-rule:nonzero;fill:rgb(100%,100%,100%);fill-opacity:1;" d="M 259.75 161.242188 L 269.75 161.242188 L 269.75 175.242188 L 259.75 175.242188 Z M 259.75 161.242188 "/>
<g style="fill:rgb(100%,0%,0%);fill-opacity:1;">
  <use xlink:href="#glyph0-1" x="259.75" y="172.380859"/>
</g>
<path style=" stroke:none;fill-rule:nonzero;fill:rgb(100%,100%,100%);fill-opacity:1;" d="M 240.710938 207.570312 L 265.710938 207.570312 L 265.710938 226.570312 L 240.710938 226.570312 Z M 240.710938 207.570312 "/>
<g style="fill:rgb(0%,0%,100%);fill-opacity:1;">
  <use xlink:href="#glyph0-2" x="240.710938" y="218.708984"/>
  <use xlink:href="#glyph0-3" x="249.6875" y="218.708984"/>
</g>
<g style="fill:rgb(0%,0%,100%);fill-opacity:1;">
  <use xlink:href="#glyph1-1" x="258.710938" y="223.591797"/>
</g>
<path style="fill:none;stroke-width:1.2;stroke-linecap:butt;stroke-linejoin:miter;stroke:rgb(0%,0%,0%);stroke-opacity:1;stroke-miterlimit:10;" d="M 151.980469 140.441406 L 141.921875 150.910156 "/>
<path style="fill:none;stroke-width:1.2;stroke-linecap:butt;stroke-linejoin:miter;stroke:rgb(100%,0%,0%);stroke-opacity:1;stroke-miterlimit:10;" d="M 141.921875 150.910156 L 131.863281 161.382812 "/>
<path style="fill:none;stroke-width:1.2;stroke-linecap:butt;stroke-linejoin:miter;stroke:rgb(100%,0%,0%);stroke-opacity:1;stroke-miterlimit:10;" d="M 131.863281 161.382812 L 117.769531 157.90625 "/>
<path style="fill:none;stroke-width:1.2;stroke-linecap:butt;stroke-linejoin:miter;stroke:rgb(0%,0%,0%);stroke-opacity:1;stroke-miterlimit:10;" d="M 117.769531 157.90625 L 103.671875 154.433594 "/>
<path style=" stroke:none;fill-rule:nonzero;fill:rgb(100%,100%,100%);fill-opacity:1;" d="M 126.863281 154.382812 L 136.863281 154.382812 L 136.863281 168.382812 L 126.863281 168.382812 Z M 126.863281 154.382812 "/>
<g style="fill:rgb(100%,0%,0%);fill-opacity:1;">
  <use xlink:href="#glyph0-1" x="126.863281" y="165.521484"/>
</g>
<path style="fill:none;stroke-width:1.2;stroke-linecap:butt;stroke-linejoin:miter;stroke:rgb(0%,0%,0%);stroke-opacity:1;stroke-miterlimit:10;" d="M 106.953125 153.480469 L 102.914062 139.539062 "/>
<path style="fill:none;stroke-width:1.2;stroke-linecap:butt;stroke-linejoin:miter;stroke:rgb(100%,0%,0%);stroke-opacity:1;stroke-miterlimit:10;" d="M 102.914062 139.539062 L 98.875 125.59375 "/>
<path style="fill:none;stroke-width:1.2;stroke-linecap:butt;stroke-linejoin:miter;stroke:rgb(0%,0%,0%);stroke-opacity:1;stroke-miterlimit:10;" d="M 100.390625 155.382812 L 96.351562 141.4375 "/>
<path style="fill:none;stroke-width:1.2;stroke-linecap:butt;stroke-linejoin:miter;stroke:rgb(100%,0%,0%);stroke-opacity:1;stroke-miterlimit:10;" d="M 96.351562 141.4375 L 92.3125 127.492188 "/>
<path style="fill:none;stroke-width:1.2;stroke-linecap:butt;stroke-linejoin:miter;stroke:rgb(0%,0%,0%);stroke-opacity:1;stroke-miterlimit:10;" d="M 103.671875 154.433594 L 93.613281 164.902344 "/>
<path style="fill:none;stroke-width:1.2;stroke-linecap:butt;stroke-linejoin:miter;stroke:rgb(0%,0%,100%);stroke-opacity:1;stroke-miterlimit:10;" d="M 93.613281 164.902344 L 83.558594 175.375 "/>
<path style=" stroke:none;fill-rule:nonzero;fill:rgb(100%,100%,100%);fill-opacity:1;" d="M 90.59375 119.542969 L 100.59375 119.542969 L 100.59375 133.542969 L 90.59375 133.542969 Z M 90.59375 119.542969 "/>
<g style="fill:rgb(100%,0%,0%);fill-opacity:1;">
  <use xlink:href="#glyph0-1" x="90.59375" y="130.681641"/>
</g>
<path style="fill:none;stroke-width:1.2;stroke-linecap:butt;stroke-linejoin:miter;stroke:rgb(0%,0%,100%);stroke-opacity:1;stroke-miterlimit:10;" d="M 83.558594 175.375 L 69.460938 171.898438 "/>
<path style="fill:none;stroke-width:1.2;stroke-linecap:butt;stroke-linejoin:miter;stroke:rgb(0%,0%,0%);stroke-opacity:1;stroke-miterlimit:10;" d="M 69.460938 171.898438 L 55.363281 168.421875 "/>
<path style=" stroke:none;fill-rule:nonzero;fill:rgb(100%,100%,100%);fill-opacity:1;" d="M 74.558594 168.375 L 92.558594 168.375 L 92.558594 182.375 L 74.558594 182.375 Z M 74.558594 168.375 "/>
<g style="fill:rgb(0%,0%,100%);fill-opacity:1;">
  <use xlink:href="#glyph0-2" x="74.558594" y="179.513672"/>
  <use xlink:href="#glyph0-3" x="83.535156" y="179.513672"/>
</g>
<path style="fill:none;stroke-width:1.2;stroke-linecap:butt;stroke-linejoin:miter;stroke:rgb(0%,0%,0%);stroke-opacity:1;stroke-miterlimit:10;" d="M 55.363281 168.421875 L 35.25 189.363281 "/>
<path style="fill:none;stroke-width:1.2;stroke-linecap:butt;stroke-linejoin:miter;stroke:rgb(0%,0%,0%);stroke-opacity:1;stroke-miterlimit:10;" d="M 55.363281 168.421875 L 47.289062 140.535156 "/>
</g>
</svg>

<svg xmlns="http://www.w3.org/2000/svg" xmlns:xlink="http://www.w3.org/1999/xlink" width="300pt" height="300pt" viewBox="0 0 300 300"><defs><symbol overflow="visible"><path d="M.594 2.125V-8.47h6V2.126zm.672-.672h4.671V-7.78h-4.67zm0 0"/></symbol><symbol overflow="visible" id="a"><path d="M4.734-7.953c-.867 0-1.554.324-2.062.97-.5.635-.75 1.51-.75 2.624 0 1.094.25 1.965.75 2.61.508.637 1.195.953 2.062.953.852 0 1.532-.316 2.032-.953.507-.645.765-1.516.765-2.61 0-1.113-.257-1.988-.764-2.624-.5-.645-1.18-.97-2.032-.97zm0-.953c1.22 0 2.192.414 2.922 1.234.74.824 1.11 1.93 1.11 3.313 0 1.376-.37 2.477-1.11 3.298C6.926-.24 5.953.17 4.734.17c-1.23 0-2.214-.41-2.953-1.234C1.04-1.882.673-2.984.673-4.36c0-1.382.367-2.488 1.11-3.312.738-.82 1.722-1.234 2.952-1.234zm0 0"/></symbol><symbol overflow="visible" id="b"><path d="M1.172-8.75h1.594l3.89 7.313V-8.75h1.14V0H6.204L2.328-7.313V0H1.172zm0 0"/></symbol><symbol overflow="visible" id="c"><path d="M1.172-8.75H2.36v3.594h4.296V-8.75h1.188V0H6.656v-4.172H2.36V0H1.17zm0 0"/></symbol><symbol overflow="visible"><path d="M.5 1.766v-8.813h5v8.813zm.563-.547h3.875v-7.704H1.063zm0 0"/></symbol><symbol overflow="visible" id="d"><path d="M1.922-.828H5.36V0H.733v-.828c.375-.383.883-.906 1.532-1.563.644-.657 1.05-1.08 1.218-1.266.313-.352.532-.65.657-.89.126-.25.188-.493.188-.735 0-.384-.137-.697-.406-.94-.274-.25-.625-.374-1.063-.374-.313 0-.64.06-.985.172-.336.106-.7.266-1.094.484v-1c.396-.156.767-.273 1.11-.36.344-.08.66-.124.954-.124.75 0 1.347.188 1.797.563.458.376.688.883.688 1.516 0 .305-.058.59-.172.86-.117.26-.32.574-.61.937-.085.094-.343.37-.78.828-.438.45-1.055 1.08-1.844 1.892zm0 0"/></symbol></defs><g><path fill="#fff" d="M0 0h300v300H0z"/><path d="M221.96 82.93l-6.948 28.19M215.012 111.12l-27.89 8.08M187.12 119.2l-6.948 28.19M180.172 147.39l-6.95 28.196M180.172 147.39l28.19 6.95M180.172 147.39l-28.192-6.95M208.363 154.34l4.04 13.945" stroke-width="1.2" stroke="#000" stroke-miterlimit="10" fill="none"/><path d="M212.402 168.285l4.04 13.945M216.44 182.23l14.1 3.477" stroke-width="1.2" stroke="#f00" stroke-miterlimit="10" fill="none"/><path d="M230.54 185.707l14.097 3.473" stroke-width="1.2" stroke="#000" stroke-miterlimit="10" fill="none"/><path d="M211.44 175.23h10v14h-10zm0 0" fill="#fff"/><use xlink:href="#a" x="211.441" y="186.369" fill="#f00"/><path d="M247.098 191.547l10.058-10.47" stroke-width="1.2" stroke="#000" stroke-miterlimit="10" fill="none"/><path d="M257.156 181.078l10.06-10.473" stroke-width="1.2" stroke="#f00" stroke-miterlimit="10" fill="none"/><path d="M242.172 186.816l10.058-10.472" stroke-width="1.2" stroke="#000" stroke-miterlimit="10" fill="none"/><path d="M252.23 176.344l10.055-10.47" stroke-width="1.2" stroke="#f00" stroke-miterlimit="10" fill="none"/><path d="M244.637 189.18l4.04 13.945" stroke-width="1.2" stroke="#000" stroke-miterlimit="10" fill="none"/><path d="M248.676 203.125l4.035 13.945" stroke-width="1.2" stroke="#00f" stroke-miterlimit="10" fill="none"/><path d="M259.75 161.242h10v14h-10zm0 0" fill="#fff"/><use xlink:href="#a" x="259.75" y="172.381" fill="#f00"/><path d="M240.71 207.57h25v19h-25zm0 0" fill="#fff"/><g fill="#00f"><use xlink:href="#b" x="240.711" y="218.709"/><use xlink:href="#c" x="249.688" y="218.709"/></g><use xlink:href="#d" x="258.711" y="223.592" fill="#00f"/><path d="M151.98 140.44l-10.058 10.47" stroke-width="1.2" stroke="#000" stroke-miterlimit="10" fill="none"/><path d="M141.922 150.91l-10.06 10.473M131.863 161.383l-14.093-3.477" stroke-width="1.2" stroke="#f00" stroke-miterlimit="10" fill="none"/><path d="M117.77 157.906l-14.098-3.472" stroke-width="1.2" stroke="#000" stroke-miterlimit="10" fill="none"/><path d="M126.863 154.383h10v14h-10zm0 0" fill="#fff"/><use xlink:href="#a" x="126.863" y="165.521" fill="#f00"/><path d="M106.953 153.48l-4.04-13.94" stroke-width="1.2" stroke="#000" stroke-miterlimit="10" fill="none"/><path d="M102.914 139.54l-4.04-13.946" stroke-width="1.2" stroke="#f00" stroke-miterlimit="10" fill="none"/><path d="M100.39 155.383l-4.038-13.946" stroke-width="1.2" stroke="#000" stroke-miterlimit="10" fill="none"/><path d="M96.352 141.438l-4.04-13.946" stroke-width="1.2" stroke="#f00" stroke-miterlimit="10" fill="none"/><path d="M103.672 154.434l-10.06 10.468" stroke-width="1.2" stroke="#000" stroke-miterlimit="10" fill="none"/><path d="M93.613 164.902L83.56 175.375" stroke-width="1.2" stroke="#00f" stroke-miterlimit="10" fill="none"/><path d="M90.594 119.543h10v14h-10zm0 0" fill="#fff"/><use xlink:href="#a" x="90.594" y="130.682" fill="#f00"/><path d="M83.56 175.375l-14.1-3.477" stroke-width="1.2" stroke="#00f" stroke-miterlimit="10" fill="none"/><path d="M69.46 171.898l-14.097-3.476" stroke-width="1.2" stroke="#000" stroke-miterlimit="10" fill="none"/><path d="M74.56 168.375h18v14h-18zm0 0" fill="#fff"/><g fill="#00f"><use xlink:href="#b" x="74.559" y="179.514"/><use xlink:href="#c" x="83.535" y="179.514"/></g><path d="M55.363 168.422l-20.113 20.94M55.363 168.422l-8.074-27.887" stroke-width="1.2" stroke="#000" stroke-miterlimit="10" fill="none"/></g></svg>
